tools/download-figma-icons/icons/outlined-large/sun-moon.svg

<svg width="64" height="65" viewBox="0 0 64 65" fill="none" xmlns="http://www.w3.org/2000/svg">
<path fill-rule="evenodd" clip-rule="evenodd" d="M21.4618 7.3C20.6328 7.3 19.9618 6.628 19.9618 5.8V1.5C19.9618 0.672 20.6328 0 21.4618 0C22.2908 0 22.9618 0.672 22.9618 1.5V5.8C22.9618 6.628 22.2908 7.3 21.4618 7.3ZM12.1868 21.4617C12.1868 16.3477 16.3478 12.1867 21.4618 12.1867C26.5758 12.1867 30.7368 16.3477 30.7368 21.4617C30.7368 26.5767 26.5758 30.7377 21.4618 30.7377C16.3478 30.7377 12.1868 26.5767 12.1868 21.4617ZM9.18684 21.4617C9.18684 28.2307 14.6928 33.7377 21.4618 33.7377C28.2308 33.7377 33.7368 28.2307 33.7368 21.4617C33.7368 14.6937 28.2308 9.1867 21.4618 9.1867C14.6928 9.1867 9.18684 14.6937 9.18684 21.4617ZM46.9883 61.0052C43.3413 61.0052 39.8883 59.5782 37.3183 57.1272C37.9543 57.1982 38.5983 57.2342 39.2483 57.2342C48.6223 57.2342 56.2483 49.6082 56.2483 40.2342C56.2483 38.8172 56.0723 37.4132 55.7303 36.0562C59.0103 38.6602 60.9883 42.6442 60.9883 47.0052C60.9883 54.7252 54.7083 61.0052 46.9883 61.0052ZM32.1823 55.3612C35.1933 60.6932 40.8663 64.0052 46.9883 64.0052C56.3623 64.0052 63.9883 56.3792 63.9883 47.0052C63.9883 40.0092 59.7953 33.8142 53.3043 31.2222C52.7123 30.9852 52.0363 31.1482 51.6173 31.6292C51.1983 32.1092 51.1293 32.8022 51.4443 33.3562C52.6253 35.4302 53.2483 37.8092 53.2483 40.2342C53.2483 47.9542 46.9683 54.2342 39.2483 54.2342C37.4403 54.2342 35.6913 53.8982 34.0513 53.2332C33.4613 52.9952 32.7823 53.1542 32.3613 53.6342C31.9413 54.1132 31.8693 54.8072 32.1823 55.3612ZM9.32614 11.4489C9.61914 11.7419 10.0031 11.8879 10.3871 11.8879C10.7711 11.8879 11.1551 11.7419 11.4481 11.4489C12.0331 10.8629 12.0331 9.9129 11.4481 9.3269L8.40714 6.2859C7.82214 5.7009 6.87214 5.7009 6.28614 6.2859C5.70014 6.8719 5.70014 7.8219 6.28614 8.4079L9.32614 11.4489ZM5.80024 22.9621H1.50024C0.671244 22.9621 0.000244141 22.2901 0.000244141 21.4621C0.000244141 20.6341 0.671244 19.9621 1.50024 19.9621H5.80024C6.62924 19.9621 7.30024 20.6341 7.30024 21.4621C7.30024 22.2901 6.62924 22.9621 5.80024 22.9621ZM6.28564 36.6384C6.57864 36.9314 6.96264 37.0774 7.34664 37.0774C7.73064 37.0774 8.11464 36.9314 8.40764 36.6384L11.4476 33.5974C12.0336 33.0114 12.0336 32.0614 11.4476 31.4754C10.8616 30.8904 9.91164 30.8904 9.32664 31.4754L6.28564 34.5164C5.70064 35.1024 5.70064 36.0524 6.28564 36.6384ZM21.4618 42.924C20.6328 42.924 19.9618 42.252 19.9618 41.424V37.124C19.9618 36.296 20.6328 35.624 21.4618 35.624C22.2908 35.624 22.9618 36.296 22.9618 37.124V41.424C22.9618 42.252 22.2908 42.924 21.4618 42.924ZM34.516 36.6384C34.809 36.9314 35.193 37.0774 35.577 37.0774C35.961 37.0774 36.345 36.9314 36.638 36.6384C37.223 36.0524 37.223 35.1024 36.638 34.5164L33.597 31.4754C33.012 30.8904 32.062 30.8904 31.476 31.4754C30.89 32.0614 30.89 33.0114 31.476 33.5974L34.516 36.6384ZM41.4237 22.9621H37.1237C36.2947 22.9621 35.6237 22.2901 35.6237 21.4621C35.6237 20.6341 36.2947 19.9621 37.1237 19.9621H41.4237C42.2527 19.9621 42.9237 20.6341 42.9237 21.4621C42.9237 22.2901 42.2527 22.9621 41.4237 22.9621ZM31.4755 11.4489C31.7685 11.7419 32.1525 11.8879 32.5365 11.8879C32.9205 11.8879 33.3045 11.7419 33.5975 11.4489L36.6375 8.4079C37.2235 7.8219 37.2235 6.8719 36.6375 6.2859C36.0515 5.7009 35.1015 5.7009 34.5165 6.2859L31.4755 9.3269C30.8905 9.9129 30.8905 10.8629 31.4755 11.4489Z" fill="black"/>
</svg>

<svg xmlns="http://www.w3.org/2000/svg" width="64" height="65" fill="none" viewBox="0 0 64 65"><path fill="currentColor" fill-rule="evenodd" d="M21.462 7.3a1.5 1.5 0 0 1-1.5-1.5V1.5a1.5 1.5 0 1 1 3 0v4.3a1.5 1.5 0 0 1-1.5 1.5m-9.275 14.162c0-5.114 4.16-9.275 9.275-9.275 5.114 0 9.275 4.16 9.275 9.275s-4.161 9.276-9.275 9.276-9.275-4.161-9.275-9.276m-3 0c0 6.769 5.506 12.276 12.275 12.276s12.275-5.507 12.275-12.276c0-6.768-5.506-12.275-12.275-12.275S9.187 14.694 9.187 21.462m37.801 39.543c-3.647 0-7.1-1.427-9.67-3.878q.955.107 1.93.107c9.374 0 17-7.626 17-17 0-1.417-.176-2.82-.518-4.178 3.28 2.604 5.258 6.588 5.258 10.95 0 7.72-6.28 14-14 14m-14.806-5.644a17.03 17.03 0 0 0 14.806 8.644c9.374 0 17-7.626 17-17 0-6.996-4.193-13.19-10.684-15.783a1.498 1.498 0 0 0-1.86 2.134 13.9 13.9 0 0 1 1.804 6.878c0 7.72-6.28 14-14 14-1.808 0-3.557-.336-5.197-1a1.502 1.502 0 0 0-1.869 2.127M9.326 11.45c.293.293.677.439 1.061.439s.768-.146 1.061-.44a1.5 1.5 0 0 0 0-2.121l-3.04-3.041a1.501 1.501 0 0 0-2.122 2.122zM5.8 22.962H1.5a1.5 1.5 0 1 1 0-3h4.3a1.5 1.5 0 1 1 0 3m.486 13.676a1.495 1.495 0 0 0 2.122 0l3.04-3.04a1.5 1.5 0 0 0-2.121-2.123l-3.041 3.041a1.5 1.5 0 0 0 0 2.122m15.176 6.286a1.5 1.5 0 0 1-1.5-1.5v-4.3a1.5 1.5 0 1 1 3 0v4.3a1.5 1.5 0 0 1-1.5 1.5m13.054-6.286a1.496 1.496 0 0 0 2.122 0 1.5 1.5 0 0 0 0-2.122l-3.041-3.04a1.501 1.501 0 0 0-2.121 2.121zm6.908-13.676h-4.3a1.5 1.5 0 1 1 0-3h4.3a1.5 1.5 0 1 1 0 3M31.476 11.45c.293.293.677.439 1.06.439.384 0 .768-.146 1.061-.44l3.04-3.04a1.5 1.5 0 0 0-2.12-2.122l-3.042 3.04a1.5 1.5 0 0 0 0 2.123" clip-rule="evenodd"/></svg>
